icons/employee-id-32.svg

<?xml version="1.0" encoding="UTF-8"?><svg id="icons" xmlns="http://www.w3.org/2000/svg" viewBox="0 0 32 32"><defs><style>.cls-1{fill:none;}.cls-2{fill:#231f20;}</style></defs><path class="cls-2" d="M20,22h6v1h-6v-1Zm-2-3h10v-1h-10v1Zm0-4h10v-1h-10v1Zm0-9h13V29H1V6H14V2h4V6Zm-3,1h2V3h-2V7Zm1,18.5c0-1.92969-1.57031-3.5-3.5-3.5H7.5c-1.92969,0-3.5,1.57031-3.5,3.5v2.5h12v-2.5Zm14,2.5V10H2V28h1v-2.5c0-2.48145,2.01855-4.5,4.5-4.5h5c2.48145,0,4.5,2.01855,4.5,4.5v2.5h13ZM18,7v1h-4v-1H2v2H30v-2h-12Zm-4,9c0,2.20557-1.79443,4-4,4s-4-1.79443-4-4,1.79443-4,4-4,4,1.79443,4,4Zm-1,0c0-1.6543-1.3457-3-3-3s-3,1.3457-3,3,1.3457,3,3,3,3-1.3457,3-3Z"/><rect class="cls-1" width="32" height="32"/></svg>

<svg xmlns="http://www.w3.org/2000/svg" viewBox="0 0 32 32"><path d="M20 22h6v1h-6v-1zm-2-3h10v-1H18v1zm0-4h10v-1H18v1zm0-9h13v23H1V6h13V2h4v4zm-3 1h2V3h-2v4zm1 18.5c0-1.93-1.57-3.5-3.5-3.5h-5C5.57 22 4 23.57 4 25.5V28h12v-2.5zM30 28V10H2v18h1v-2.5C3 23.019 5.019 21 7.5 21h5c2.481 0 4.5 2.019 4.5 4.5V28h13zM18 7v1h-4V7H2v2h28V7H18zm-4 9c0 2.206-1.794 4-4 4s-4-1.794-4-4 1.794-4 4-4 4 1.794 4 4zm-1 0c0-1.654-1.346-3-3-3s-3 1.346-3 3 1.346 3 3 3 3-1.346 3-3z" fill="#231f20"/><path fill="none" d="M0 0h32v32H0z"/></svg>
